X: 96
M: C
L: 1/8
K: D
(Bc) (dc) (BAG) G | {F2}E4 z2 (A>G) |
(c>de) f | d6 :: f2 | (gf) (ed) c2 (BA) |
(d3 e f2) zA | (B>cd) A (BAG) F |
{F2}E4 z2 (fg) | (a/g/f) (g/f/e) (fd) (Bg) | {f2}THe4 z2 (GF) |

